X:1
T:Canzon prima "La Spiritata"
T:Canzon prima "La Spiritata"
T:Canzoni per sonar a quatro #1
T:Giovanni Gabrielli (1557-1613)
C:Giovanni Gabrielli (1557-1613)
%%score 1 2 3 4
L:1/8
M:2/2
K:F
V:1 treble 
V:2 treble 
V:3 alto 
V:4 bass 
V:1
 z8 | d2 G2 d2 e2 | f6 f2 | edcB A2 a2 | g2 f2 e4 | d8 | z8 | z8 | z8 | z8 | z8 | z8 | %12
 d2 G2 d2 e2 | f6 f2 | edcB A2 a2 | g2 f2 e4 | d8- | d8 | z8 | z8 | d2 G2 d2 e2 | f6 f2 | %22
 edcB A2 a2 | g2 f2 e4 | d6 d2 | c2 B2 A4 | G8- | G8 |][M:3/2] B3 c d2 B2 G2 B2 | A3 B c2 d4 ^c2 | %30
 d12 | z12 | z12 | z12 | B3 c d2 B2 G2 B2 | A3 B c2 d4 ^c2 |][M:2/2] d2 A2 Bcdf | e2 d2 c2 B2 | %38
 A2 c2 B2 A2 | G4 z4 | z4 z2 A2 | Bcdf e2 d2 | c2 B2 A4 | G4 z4 | z2 c2 defa | g2 f2 e2 d2- | %46
 d2 ^c2 d3 A | B=cdf _e2 d2 | c2 B2 x4 | A2 G2 ^F2 G4 f2 |: GGBc d4- | d2 B2 c4- | c2 B2 B2 AG | %53
 A2 B4 A2 | B4 d4 | d2 d2 d4- | d2 d2 d2 f2 | _e2 d2 c2 B2 | A2 d2 A2 B2 | ^F6 d2 | A2 B2 ^F2 G2 | %61
 A2 B2 c2 d2 | e2 f2 e d2 ^c | dAFG A2 B2 | A2 G2 ^F G2 F | GdBc d2 _e2 | d2 c2 =B c2 B | %67
 cg=ef g2 a2 | g2 f2 e f2 e | fcAB c2 d2 | c2 B2 A B2 A | BFDE F2 G2 |1 A2 B2 A G2 ^F :|2 %73
 A2 B2 A G2 ^F | G4 z d=Bc | d2 _e2 d2 c2 | =B2 c2 z g/f/ _ec | =B2 c2 z g/f/ _ec | =B2 c2 e4 | %79
 !fermata!d8 |] %80
V:2
 G2 D2 G2 A2 | B6 B2 | AGFE D2 d2 | cBAG F4 | Bc d4 ^c2 | d8 | z8 | z8 | G2 D2 G2 A2 | B6 B2 | %10
 AGFE D2 d2 | c2 B2 A4 | B6 AG | AGFE D2 d2 | cBAG F2 A2 | =B^c d4 c2 | d8 | z8 | z8 | %19
 G2 D2 G2 A2 | B6 B2 | AGFE D2 d2 | cBAG F2 A2 | =B^c d4 c2 | d6 B2 | A2 G4 ^F2 | G8- | G8 |] %28
[M:3/2] G8 G4 | F6 D2 E4 | D12 | z12 | F3 G A2 F2 D2 F2 | E3 D E2 G4 ^F2 | G3 A B2 G2 D2 E2 | %35
 F3 G A2 A2 A4 |][M:2/2] F4 z2 D2 | EFGB A2 G2 | F2 E2 D4 | z2 D2 EFGB | A2 G4 ^F2 | G2 D2 E=FGB | %42
 A2 G4 ^F2 | G2 D2 E=FGB | A2 G4 FF | BcdA c2 G2 | A3 E FGAc | B2 A2 G2 B2 | A2 G2 x4 | %49
 _E2 D2 D8 |: DGGA B4- | B2 G2 AGFE | DE F4 E2 | F8 | D4 B4 | B2 B2 B4- | B2 B2 B2 d2 | %57
 c2 B2 A2 G2 | ^F6 G2 | A4 D4 | D8 | E6 A2 | A8 | ADDE F2 G2 | F2 D2 D4 | DGGA =B2 c2 | _B2 G2 G4 | %67
 G4 z c/B/ AF | c2 c2 c4 | AAFG A2 B2 | A2 F2 F4 | FDB,C D3 E |1 ^F2 G2 AD D2 :|2 ^F2 G2 AD D2 | %74
 D4 z4 | z G/F/ _EC G4 | z G/F/ EC G4 | G8 | G8 | !fermata!G8 |] %80
V:3
 z8 | z8 | z8 | z8 | z8 | D2 G,2 D2 E2 | F6 F2 | EDCB, A,2 D2 | ^C2 D4 C2 | D6 B,2 | C4 B,2 D2 | %11
 E^F G4 F2 | G6 =FE | D8 | z4 z2 F2 | GA _B2 G2 A2 | D8 | D2 G,2 D2 E2 | F6 F2 | E6 DC | D8 | D8 | %22
 z4 z2 F2 | GA _B2 G2 A2 | D6 F2 | _E2 E4 D2 | =B,8- | B,8 |][M:3/2] z12 | z12 | %30
 B,3 C D2 B,2 G,2 B,2 | A,3 B, C2 D4 ^C2 | D12 | C6 B,2 A,4 | D8 B,4 | C6 F2 E4 |][M:2/2] D4 z4 | %37
 z8 | z2 A,2 B,CDF | E2 D2 C2 B,2 | C3 G, B,2 A,2 | G,A,B,D C2 B,2 | C4 D2 D2 | G,A,B,D C2 B,2 | %44
 C3 G, B,2 A,D | G,2 z D EFGD | F2 E2 D4 | z2 A,2 B,CDF | _E2 D2 x4 | C2 B,2 A,2 G,2 A,4 |: %50
 G,4 z G,B,C | D4 C4 | D6 CB, | C2 D2 C4 | B,8 | F4 F2 F2 | F8 | z8 | z8 | z2 D2 A,2 B,2 | %60
 ^F,2 G,2 A,2 B,2 | C2 D2 E2 =F2 | E2 D2 E4 | D4 z D/C/ B,G, | DA, B,2 A,4 | G,4 z G/F/ _EC | %66
 GD _E2 D4 | CCCD =E2 F2 | E2 A2 G4 | F4 z F/E/ DB, | FC D2 C4 | D4 z D/C/ B,G, |1 D2 D3 B, A,2 :|2 %73
 D2 D3 B, A,2 | G,D=B,C D4 | G,2 C2 =B,2 C2 | D2 _E2 D2 C2 | D2 G,2 D2 C2 | D2 G,2 C4 | %79
 !fermata!=B,8 |] %80
V:4
 z8 | z8 | z8 | z8 | G,2 D,2 G,2 A,2 | B,6 B,2 | A,G,F,E, D,2 D2 | CB,A,G, F,2 E,D, | E,2 F,2 E,4 | %9
 D,C,B,,A,, G,,2 G,2 | F,4 G,2 B,2 | CD _E2 C2 D2 | G,8 | z8 | z8 | z8 | G,2 D,2 G,2 A,2 | %17
 B,6 B,2 | A,G,F,E, D,2 D2 | C6 B,A, | G,8 | z8 | z8 | z8 | z4 z2 B,,2 | C,D, _E,2 C,2 D,2 | %26
 G,,8- | G,,8 |][M:3/2] z12 | z12 | G,,8 G,,4 | F,6 D,2 E,4 | D,12 | z12 | G,8 G,4 | F,6 D,2 A,4 |] %36
[M:2/2] D,8 | z8 | z4 z2 D,2 | E,F,G,B, A,2 G,2 | F,2 E,2 D,4 | G,4 z4 | z4 z2 D,2 | %43
 E,F,G,B, A,2 G,2 | F,2 E,2 D,2 D,2 | G,A,B,D C2 B,2 | A,4 D,2 ^F,2 | G,2 =F,2 G,4 | C,8 | %49
 D,8 x4 |: G,4 z G,G,A, | B,4 A,4 | B,4 G,4 | F,8 | B,,8 | B,4 B,2 B,2 | B,6 B,2 | C4 C4 | D8 | %59
 D,8 | D,8 | A,8 | A,8 | D,4 z4 | z D,/C,/ B,,G,, D,4 | G,4 z4 | z G,/F,/ _E,C, G,4 | C,4 z4 | %68
 z C/B,/ A,F, C4 | F,4 z4 | z F,/E,/ D,B,, F,4 | B,,4 z4 |1 z D,/C,/ B,,G,, D,4 :|2 %73
 z D,/C,/ B,,G,, D,4 | G,8 | z4 z G,/F,/ _E,C, | G,2 C2 =B,2 C2 | G,G,/F,/ _E,C, =B,,2 C,2 | %78
 G,,G,/F,/ E,C, C,4 | !fermata!G,8 |] %80

